X: 1
T: Jerry Daly's
M: 4/4
L: 1/8
R: hornpipe
K: Amix
|:ed|cA BG A2 BA|GE DE ~G2 Bd|eg fa ge d=c|B2 G2 G2 ed|
cA BG A2 BA|GE DE ~G2 Bd|eg fa ge dB|A2 AG A2:|
|:z2|ea ab ag ea|ge dB G2 Bd|g2 ga gf ef|ge dB A2 AG|
EA AB AG EA|GE DE ~G2 Bd|eg fa ge dB|A2 AG A2:|
